icons/check-square.svg

<svg width="24" height="24" viewBox="0 0 24 24" fill="none" xmlns="http://www.w3.org/2000/svg">
<path fill-rule="evenodd" clip-rule="evenodd" d="M3.75 9C3.75 6.11421 6.11421 3.75 9 3.75H15C17.8858 3.75 20.25 6.11421 20.25 9V15C20.25 17.8858 17.8858 20.25 15 20.25H9C6.11421 20.25 3.75 17.8858 3.75 15V9ZM9 2.25C5.28579 2.25 2.25 5.28579 2.25 9V15C2.25 18.7142 5.28579 21.75 9 21.75H15C18.7142 21.75 21.75 18.7142 21.75 15V9C21.75 5.28579 18.7142 2.25 15 2.25H9ZM16.4253 9.83528C16.7209 9.54519 16.7254 9.07034 16.4354 8.77467C16.1453 8.479 15.6704 8.47448 15.3747 8.76457L10.3367 13.7076L8.59444 11.4427C8.34189 11.1144 7.87101 11.0529 7.54269 11.3055C7.21438 11.5581 7.15296 12.0289 7.40551 12.3572L9.43521 14.9958L9.46965 15.0303C9.6514 15.212 9.93091 15.3999 10.3 15.3999C10.6671 15.3999 10.9455 15.214 11.1274 15.0332L16.4253 9.83528Z" fill="black"/>
</svg>

<svg xmlns="http://www.w3.org/2000/svg" fill="none" viewBox="0 0 24 24">
  <path fill="#000" fill-rule="evenodd" d="M3.75 9c0-2.886 2.364-5.25 5.25-5.25h6c2.886 0 5.25 2.364 5.25 5.25v6c0 2.886-2.364 5.25-5.25 5.25H9c-2.886 0-5.25-2.364-5.25-5.25V9ZM9 2.25C5.286 2.25 2.25 5.286 2.25 9v6c0 3.714 3.036 6.75 6.75 6.75h6c3.714 0 6.75-3.036 6.75-6.75V9c0-3.714-3.036-6.75-6.75-6.75H9Zm7.425 7.585a.75.75 0 0 0-1.05-1.07l-5.038 4.943-1.743-2.265a.75.75 0 1 0-1.188.914l2.03 2.639.034.034c.181.182.46.37.83.37.367 0 .645-.186.827-.367l5.298-5.198Z" clip-rule="evenodd"/>
</svg>
